X:1
T:Old Joe Clark
C:Trad.
M:C
Q:92
L:1/8
K:A mixolydian
"A"|: efgf ed c2 | efgf e2 e2 | efgf ed c2 | AcBG AA A2 "B"::
A2 A2 ed c2 | AA/2A/2GA E2 E2 | A2 A2 ed c2 | AcBG AA A2 :|
